(Exported by FreeCAD)
(Post Processor: PathScripts.post.linuxcnc_post)
(Output Time:2019-01-30 18:01:26.919121)
(begin preamble)
G17 G54 G40 G49 G80 G90
G21
(begin operation: Profile_Faces)
(machine: not set, mm/min)
(Profile_Faces)
(Compensated Tool Path. Diameter: 6.0)
G0 Z5.000
M03
G0 X50.613 Y-149.387
G0 Z3.000
G1 X50.613 Y-149.387 Z-4.000 F60.000
G3 X49.756 Y-149.168 Z-4.000 I-0.613 J-0.613 F120.000
G3 X50.244 Y-150.832 Z-4.000 I0.244 J-0.832 F120.000
G3 X50.613 Y-149.387 Z-4.000 I-0.244 J0.832 F120.000
G1 X50.613 Y-149.387 Z-8.000 F60.000
G3 X49.756 Y-149.168 Z-8.000 I-0.613 J-0.613 F120.000
G3 X50.244 Y-150.832 Z-8.000 I0.244 J-0.832 F120.000
G3 X50.613 Y-149.387 Z-8.000 I-0.244 J0.832 F120.000
G0 Z5.000
G0 X25.613 Y-199.387
G0 Z3.000
G1 X25.613 Y-199.387 Z-4.000 F60.000
G3 X24.756 Y-199.168 Z-4.000 I-0.613 J-0.613 F120.000
G3 X25.244 Y-200.832 Z-4.000 I0.244 J-0.832 F120.000
G3 X25.613 Y-199.387 Z-4.000 I-0.244 J0.832 F120.000
G1 X25.613 Y-199.387 Z-8.000 F60.000
G3 X24.756 Y-199.168 Z-8.000 I-0.613 J-0.613 F120.000
G3 X25.244 Y-200.832 Z-8.000 I0.244 J-0.832 F120.000
G3 X25.613 Y-199.387 Z-8.000 I-0.244 J0.832 F120.000
G0 Z5.000
G0 X125.613 Y-199.387
G0 Z3.000
G1 X125.613 Y-199.387 Z-4.000 F60.000
G3 X124.756 Y-199.168 Z-4.000 I-0.613 J-0.613 F120.000
G3 X125.244 Y-200.832 Z-4.000 I0.244 J-0.832 F120.000
G3 X125.613 Y-199.387 Z-4.000 I-0.244 J0.832 F120.000
G1 X125.613 Y-199.387 Z-8.000 F60.000
G3 X124.756 Y-199.168 Z-8.000 I-0.613 J-0.613 F120.000
G3 X125.244 Y-200.832 Z-8.000 I0.244 J-0.832 F120.000
G3 X125.613 Y-199.387 Z-8.000 I-0.244 J0.832 F120.000
G0 Z5.000
G0 X75.613 Y-199.387
G0 Z3.000
G1 X75.613 Y-199.387 Z-4.000 F60.000
G3 X74.756 Y-199.168 Z-4.000 I-0.613 J-0.613 F120.000
G3 X75.244 Y-200.832 Z-4.000 I0.244 J-0.832 F120.000
G3 X75.613 Y-199.387 Z-4.000 I-0.244 J0.832 F120.000
G1 X75.613 Y-199.387 Z-8.000 F60.000
G3 X74.756 Y-199.168 Z-8.000 I-0.613 J-0.613 F120.000
G3 X75.244 Y-200.832 Z-8.000 I0.244 J-0.832 F120.000
G3 X75.613 Y-199.387 Z-8.000 I-0.244 J0.832 F120.000
G0 Z5.000
G0 X100.613 Y-149.387
G0 Z3.000
G1 X100.613 Y-149.387 Z-4.000 F60.000
G3 X99.756 Y-149.168 Z-4.000 I-0.613 J-0.613 F120.000
G3 X100.244 Y-150.832 Z-4.000 I0.244 J-0.832 F120.000
G3 X100.613 Y-149.387 Z-4.000 I-0.244 J0.832 F120.000
G1 X100.613 Y-149.387 Z-8.000 F60.000
G3 X99.756 Y-149.168 Z-8.000 I-0.613 J-0.613 F120.000
G3 X100.244 Y-150.832 Z-8.000 I0.244 J-0.832 F120.000
G3 X100.613 Y-149.387 Z-8.000 I-0.244 J0.832 F120.000
G0 Z5.000
G0 X25.613 Y-99.387
G0 Z3.000
G1 X25.613 Y-99.387 Z-4.000 F60.000
G3 X24.756 Y-99.168 Z-4.000 I-0.613 J-0.613 F120.000
G3 X25.244 Y-100.832 Z-4.000 I0.244 J-0.832 F120.000
G3 X25.613 Y-99.387 Z-4.000 I-0.244 J0.832 F120.000
G1 X25.613 Y-99.387 Z-8.000 F60.000
G3 X24.756 Y-99.168 Z-8.000 I-0.613 J-0.613 F120.000
G3 X25.244 Y-100.832 Z-8.000 I0.244 J-0.832 F120.000
G3 X25.613 Y-99.387 Z-8.000 I-0.244 J0.832 F120.000
G0 Z5.000
G0 X75.613 Y-99.387
G0 Z3.000
G1 X75.613 Y-99.387 Z-4.000 F60.000
G3 X74.756 Y-99.168 Z-4.000 I-0.613 J-0.613 F120.000
G3 X75.244 Y-100.832 Z-4.000 I0.244 J-0.832 F120.000
G3 X75.613 Y-99.387 Z-4.000 I-0.244 J0.832 F120.000
G1 X75.613 Y-99.387 Z-8.000 F60.000
G3 X74.756 Y-99.168 Z-8.000 I-0.613 J-0.613 F120.000
G3 X75.244 Y-100.832 Z-8.000 I0.244 J-0.832 F120.000
G3 X75.613 Y-99.387 Z-8.000 I-0.244 J0.832 F120.000
G0 Z5.000
G0 X175.613 Y-99.387
G0 Z3.000
G1 X175.613 Y-99.387 Z-4.000 F60.000
G3 X174.756 Y-99.168 Z-4.000 I-0.613 J-0.613 F120.000
G3 X175.244 Y-100.832 Z-4.000 I0.244 J-0.832 F120.000
G3 X175.613 Y-99.387 Z-4.000 I-0.244 J0.832 F120.000
G1 X175.613 Y-99.387 Z-8.000 F60.000
G3 X174.756 Y-99.168 Z-8.000 I-0.613 J-0.613 F120.000
G3 X175.244 Y-100.832 Z-8.000 I0.244 J-0.832 F120.000
G3 X175.613 Y-99.387 Z-8.000 I-0.244 J0.832 F120.000
G0 Z5.000
G0 X125.613 Y-99.387
G0 Z3.000
G1 X125.613 Y-99.387 Z-4.000 F60.000
G3 X124.756 Y-99.168 Z-4.000 I-0.613 J-0.613 F120.000
G3 X125.244 Y-100.832 Z-4.000 I0.244 J-0.832 F120.000
G3 X125.613 Y-99.387 Z-4.000 I-0.244 J0.832 F120.000
G1 X125.613 Y-99.387 Z-8.000 F60.000
G3 X124.756 Y-99.168 Z-8.000 I-0.613 J-0.613 F120.000
G3 X125.244 Y-100.832 Z-8.000 I0.244 J-0.832 F120.000
G3 X125.613 Y-99.387 Z-8.000 I-0.244 J0.832 F120.000
G0 Z5.000
G0 X175.613 Y-199.387
G0 Z3.000
G1 X175.613 Y-199.387 Z-4.000 F60.000
G3 X174.756 Y-199.168 Z-4.000 I-0.613 J-0.613 F120.000
G3 X175.244 Y-200.832 Z-4.000 I0.244 J-0.832 F120.000
G3 X175.613 Y-199.387 Z-4.000 I-0.244 J0.832 F120.000
G1 X175.613 Y-199.387 Z-8.000 F60.000
G3 X174.756 Y-199.168 Z-8.000 I-0.613 J-0.613 F120.000
G3 X175.244 Y-200.832 Z-8.000 I0.244 J-0.832 F120.000
G3 X175.613 Y-199.387 Z-8.000 I-0.244 J0.832 F120.000
G0 Z5.000
G0 X150.613 Y-149.387
G0 Z3.000
G1 X150.613 Y-149.387 Z-4.000 F60.000
G3 X149.756 Y-149.168 Z-4.000 I-0.613 J-0.613 F120.000
G3 X150.244 Y-150.832 Z-4.000 I0.244 J-0.832 F120.000
G3 X150.613 Y-149.387 Z-4.000 I-0.244 J0.832 F120.000
G1 X150.613 Y-149.387 Z-8.000 F60.000
G3 X149.756 Y-149.168 Z-8.000 I-0.613 J-0.613 F120.000
G3 X150.244 Y-150.832 Z-8.000 I0.244 J-0.832 F120.000
G3 X150.613 Y-149.387 Z-8.000 I-0.244 J0.832 F120.000
G0 Z5.000
G0 X100.613 Y-49.387
G0 Z3.000
G1 X100.613 Y-49.387 Z-4.000 F60.000
G3 X99.756 Y-49.168 Z-4.000 I-0.613 J-0.613 F120.000
G3 X100.244 Y-50.832 Z-4.000 I0.244 J-0.832 F120.000
G3 X100.613 Y-49.387 Z-4.000 I-0.244 J0.832 F120.000
G1 X100.613 Y-49.387 Z-8.000 F60.000
G3 X99.756 Y-49.168 Z-8.000 I-0.613 J-0.613 F120.000
G3 X100.244 Y-50.832 Z-8.000 I0.244 J-0.832 F120.000
G3 X100.613 Y-49.387 Z-8.000 I-0.244 J0.832 F120.000
G0 Z5.000
G0 X150.613 Y-49.387
G0 Z3.000
G1 X150.613 Y-49.387 Z-4.000 F60.000
G3 X149.756 Y-49.168 Z-4.000 I-0.613 J-0.613 F120.000
G3 X150.244 Y-50.832 Z-4.000 I0.244 J-0.832 F120.000
G3 X150.613 Y-49.387 Z-4.000 I-0.244 J0.832 F120.000
G1 X150.613 Y-49.387 Z-8.000 F60.000
G3 X149.756 Y-49.168 Z-8.000 I-0.613 J-0.613 F120.000
G3 X150.244 Y-50.832 Z-8.000 I0.244 J-0.832 F120.000
G3 X150.613 Y-49.387 Z-8.000 I-0.244 J0.832 F120.000
G0 Z5.000
G0 X50.613 Y-49.387
G0 Z3.000
G1 X50.613 Y-49.387 Z-4.000 F60.000
G3 X49.756 Y-49.168 Z-4.000 I-0.613 J-0.613 F120.000
G3 X50.244 Y-50.832 Z-4.000 I0.244 J-0.832 F120.000
G3 X50.613 Y-49.387 Z-4.000 I-0.244 J0.832 F120.000
G1 X50.613 Y-49.387 Z-8.000 F60.000
G3 X49.756 Y-49.168 Z-8.000 I-0.613 J-0.613 F120.000
G3 X50.244 Y-50.832 Z-8.000 I0.244 J-0.832 F120.000
G3 X50.613 Y-49.387 Z-8.000 I-0.244 J0.832 F120.000
G0 Z5.000
(finish operation: Profile_Faces)
(begin postamble)
M05
G17 G54 G90 G80 G40
M2
